cssgg/edit-mask.svg

<svg
  width="24"
  height="24"
  viewBox="0 0 24 24"
  fill="none"
  xmlns="http://www.w3.org/2000/svg"
>
  <path
    d="M12 14C13.1046 14 14 13.1046 14 12C14 10.8954 13.1046 10 12 10C10.8954 10 10 10.8954 10 12C10 13.1046 10.8954 14 12 14Z"
    fill="currentColor"
  />
  <path
    fill-rule="evenodd"
    clip-rule="evenodd"
    d="M12 22C6.47716 22 2 17.5228 2 12C2 6.47717 6.47716 2 12 2C17.5228 2 22 6.47717 22 12C22 17.5228 17.5228 22 12 22ZM9.0307 19.4308C9.01047 19.29 9 19.1462 9 19C9 17.3431 10.3431 16 12 16C13.6569 16 15 17.3431 15 19C15 19.1462 14.9895 19.29 14.9693 19.4308C16.9993 18.6189 18.619 16.9993 19.4308 14.9692C19.2901 14.9895 19.1463 15 19 15C17.3431 15 16 13.6569 16 12C16 10.3431 17.3431 9 19 9C19.0637 9 19.127 9.00195 19.1897 9.00586C19.271 9.01099 19.3514 9.01929 19.4308 9.03076C18.6189 7.00073 16.9993 5.3811 14.9693 4.56921C14.9895 4.70996 15 4.85376 15 5C15 6.65686 13.6569 8 12 8C10.3431 8 9 6.65686 9 5C9 4.85376 9.01048 4.70996 9.03072 4.56921C7.0007 5.3811 5.38106 7.00073 4.56915 9.03076C4.64857 9.01929 4.729 9.01099 4.8103 9.00586C4.87303 9.00195 4.93628 9 5 9C6.65686 9 8 10.3431 8 12C8 13.6569 6.65686 15 5 15C4.8537 15 4.70985 14.9895 4.56915 14.9692C5.38104 16.9993 7.00069 18.6189 9.0307 19.4308Z"
    fill="currentColor"
  />
</svg>

<svg viewBox="0 0 24 24" xmlns="http://www.w3.org/2000/svg"><g><path d="M12 14c1.1 0 2-.9 2-2 0-1.11-.9-2-2-2 -1.11 0-2 .89-2 2 0 1.1.89 2 2 2Z"/><path fill-rule="evenodd" d="M12 22C6.47 22 2 17.52 2 12 2 6.47 6.47 2 12 2c5.52 0 10 4.47 10 10 0 5.52-4.48 10-10 10Zm-2.97-2.57c-.03-.15-.04-.29-.04-.44 0-1.66 1.34-3 3-3 1.65 0 3 1.34 3 3 0 .14-.02.29-.04.43 2.03-.82 3.64-2.44 4.46-4.47 -.15.02-.29.03-.44.03 -1.66 0-3-1.35-3-3 0-1.66 1.34-3 3-3 .06 0 .12 0 .18 0 .08 0 .16.01.24.02 -.82-2.04-2.44-3.65-4.47-4.47 .02.14.03.28.03.43 0 1.65-1.35 3-3 3 -1.66 0-3-1.35-3-3 0-.15.01-.3.03-.44 -2.04.81-3.65 2.43-4.47 4.46 .07-.02.15-.02.24-.03 .06-.01.12-.01.18-.01 1.65 0 3 1.34 3 3 0 1.65-1.35 3-3 3 -.15 0-.3-.02-.44-.04 .81 2.03 2.43 3.64 4.46 4.46Z"/></g></svg>
